X: 9383
T: Dandy Bash
R: jig
M: 6/8
K: Gmajor
|:D|G2 G EDE|G2 B dB/c/d|eAA BAG|EAA AGE|
G2 G EDE|G2 B dBd|eBB AGE|G3 G2:|
|:B|d2 g gfg|e2 ge dB/c/d|eAA AB/c/d|gfg edB|
dgg ge/f/g|eaf g2 e|dBB AGE|G3 G2:|

